X: 25573
T: Marjorie Lowe
R: jig
M: 6/8
K: Amixolydian
|:e|AAA e2d|eaa a2f|gfe dBG|GBB dBG|
AAA e2d|eaa a2f|gfe dBG|AAA A2:|
|:e|gfe a3|AAA a2f|gfe dBG|GBB dBG|
gfe a3|AAA a2f|gfe dBG|AAA A2:|
|:d|eAA eAA|egd eAA|dGG dGG|Bge dGG|
eAA eAA|egd eAA|gfe dBG|AAA A2:|
|:e|a2a g2e|Aaf ecA|g2g e2d|Gge dBG|
a2a g2e|Aaf ecA|gfe dBG|AAA A2:|

